<?xml version="1.0" encoding="UTF-8"?>
<map version="1.10" tiledversion="1.12.1" orientation="orthogonal" renderorder="right-down" width="40" height="40" tilewidth="16" tileheight="16" infinite="0" nextlayerid="4" nextobjectid="24">
 <tileset firstgid="1" source="Placeholder.tsx"/>
 <layer id="1" name="Tile Layer 1" width="40" height="40">
  <data encoding="csv">
10,10,10,10,10,10,10,10,10,10,10,10,10,10,10,10,10,10,10,10,10,10,10,10,10,10,10,10,10,10,10,10,10,10,10,10,10,10,10,10,
10,1,1,1,1,1,1,1,1,1,1,2,2,2,2,2,2,2,2,2,2,2,2,2,2,2,2,2,2,2,2,2,2,2,2,2,2,2,2,10,
10,1,1,1,1,1,1,1,1,1,1,2,2,2,2,2,2,2,2,2,2,2,2,2,2,2,2,2,2,2,2,2,2,2,2,2,2,2,2,10,
10,1,1,1,1,1,1,1,1,1,1,2,2,2,2,2,2,2,2,2,2,2,2,2,2,2,2,2,2,2,2,2,2,2,2,2,2,2,2,10,
10,1,1,1,1,1,1,1,1,1,1,2,2,2,2,2,2,2,2,2,7,7,7,7,7,7,7,7,7,7,7,7,7,7,7,2,2,2,2,10,
10,1,1,1,1,1,1,1,1,1,1,2,2,2,2,2,2,2,2,2,7,7,7,7,7,7,7,7,7,7,7,7,7,7,7,2,2,2,2,10,
10,1,1,1,1,1,1,1,1,1,1,2,2,2,2,2,2,2,2,2,7,7,7,7,7,7,7,7,7,7,7,7,7,7,7,2,2,2,2,10,
10,1,1,1,1,1,1,1,1,1,1,2,2,2,2,2,2,2,2,2,7,7,7,7,7,7,9,9,9,9,7,7,7,7,7,2,2,2,2,10,
10,1,1,1,1,1,1,1,1,1,1,2,2,2,2,2,2,2,2,2,7,7,7,7,7,7,9,9,9,9,7,7,7,7,7,2,2,2,2,10,
10,1,1,1,1,1,1,1,1,1,1,2,2,2,2,2,2,2,2,2,7,7,7,7,7,7,9,9,9,9,7,7,7,7,7,2,2,2,2,10,
10,1,1,1,1,1,1,1,4,4,4,4,4,4,4,4,4,4,4,4,7,7,7,7,7,7,9,9,9,9,7,7,7,7,7,2,2,2,2,10,
10,1,1,1,1,1,1,1,4,1,1,2,2,2,2,2,2,2,2,2,7,7,7,7,7,7,9,9,9,9,7,7,7,7,7,2,2,2,2,10,
10,1,1,1,1,1,1,1,4,1,1,2,2,2,2,2,2,2,2,2,7,7,7,7,7,7,9,9,9,9,7,7,7,7,7,2,2,2,2,10,
10,1,1,1,1,1,1,1,4,1,1,2,2,2,2,2,2,2,2,2,7,7,7,7,7,7,7,7,7,7,7,7,7,7,7,2,2,2,2,10,
10,1,1,1,1,1,1,1,4,1,1,2,2,2,2,2,2,2,2,2,7,7,7,7,7,7,7,7,7,7,7,7,7,7,7,2,2,2,2,10,
10,1,1,1,1,1,1,1,4,1,1,2,2,2,2,2,2,2,2,2,7,7,7,7,7,7,7,7,7,7,7,7,7,7,7,2,2,2,2,10,
10,1,1,1,1,1,1,1,4,1,1,2,2,2,2,2,2,2,2,2,7,7,7,7,7,7,7,7,7,7,7,7,7,7,7,2,2,2,2,10,
10,1,1,1,1,1,1,1,4,1,1,2,2,2,2,2,2,2,2,2,2,2,2,2,2,2,2,2,2,2,2,2,2,2,2,2,2,2,2,10,
10,1,1,1,1,1,1,1,4,1,1,2,2,2,2,2,2,2,2,2,2,2,2,2,2,2,2,2,2,2,2,2,2,2,2,2,2,2,2,10,
10,1,1,1,1,1,1,1,4,1,1,2,2,2,2,2,2,2,2,2,2,2,2,2,2,2,2,2,2,2,2,2,2,2,2,2,2,2,2,10,
10,1,1,1,1,1,1,1,4,1,1,2,2,2,2,2,2,2,2,2,2,2,2,2,2,2,2,2,2,2,2,2,2,2,2,2,2,2,2,10,
10,1,1,1,1,1,1,1,4,1,1,2,2,2,2,2,2,2,2,2,2,2,2,2,2,2,2,2,2,2,2,2,2,2,2,2,2,2,2,10,
10,1,1,1,1,1,1,1,4,1,1,2,2,2,2,2,2,2,2,2,2,2,2,2,2,2,2,2,2,2,2,2,2,2,2,2,2,2,2,10,
10,1,1,1,1,1,1,1,4,1,1,2,2,2,2,2,2,2,2,2,2,2,2,2,2,2,2,2,2,2,2,2,2,2,2,2,2,2,2,10,
10,1,1,1,1,1,1,1,4,1,1,1,1,1,1,1,1,1,1,1,1,1,1,1,1,1,1,1,1,1,1,1,1,1,1,1,1,1,1,10,
10,1,1,1,1,1,1,1,4,1,1,1,1,1,1,1,1,1,1,1,1,1,1,1,1,1,1,1,1,1,1,1,1,1,1,1,1,1,1,10,
10,1,1,1,1,1,3,1,4,1,1,1,1,1,1,1,1,1,1,1,1,1,1,1,1,1,6,6,6,6,6,6,6,6,6,6,6,6,6,10,
10,1,1,1,1,1,3,1,4,1,1,1,1,1,1,1,1,1,1,1,1,1,1,1,1,1,6,6,6,6,6,6,6,6,6,6,6,6,6,10,
10,1,1,1,1,1,3,1,4,1,1,1,1,1,1,1,1,1,1,1,1,1,1,1,1,1,6,6,6,6,6,6,6,6,6,6,6,6,6,10,
10,1,1,1,1,1,3,1,4,1,1,1,1,1,1,1,1,1,1,1,1,1,1,1,1,1,6,6,6,6,6,6,6,6,6,6,6,6,6,10,
10,1,1,1,1,1,3,1,4,1,1,1,1,1,1,1,1,1,1,1,1,1,1,1,1,1,6,6,6,6,6,6,6,6,6,6,6,6,6,10,
10,1,1,1,1,1,3,1,4,1,1,1,1,1,1,1,1,1,1,1,1,1,1,1,1,1,6,6,6,6,6,6,6,6,6,6,6,6,6,10,
10,1,1,1,1,1,1,1,4,1,1,1,1,1,1,1,1,1,1,1,1,1,1,1,1,1,6,6,6,6,6,6,6,6,6,6,6,6,6,10,
10,1,1,1,1,1,1,1,4,1,1,1,1,1,1,1,1,1,1,1,1,1,1,1,1,1,6,6,6,6,6,6,6,6,6,6,6,6,6,10,
10,1,4,4,4,4,4,4,4,1,1,1,1,1,1,1,1,1,1,1,1,1,1,1,1,1,6,6,6,6,6,6,6,6,6,6,6,6,6,10,
10,1,4,1,1,1,1,1,1,1,1,1,1,1,1,1,1,1,1,1,1,1,1,1,1,1,6,6,6,6,6,6,6,6,6,6,6,6,6,10,
10,1,4,1,1,1,1,3,3,3,3,3,3,3,3,1,1,1,1,1,1,1,1,1,1,1,6,6,6,6,6,6,6,6,6,6,6,6,6,10,
10,1,4,1,1,1,1,1,1,1,1,1,1,1,1,1,1,1,1,1,1,1,1,1,1,1,6,6,6,6,6,6,6,6,6,6,6,6,6,10,
10,11,4,1,1,1,1,1,1,1,1,1,1,1,1,1,1,1,1,1,1,1,1,1,1,1,6,6,6,6,6,6,6,6,6,6,6,6,6,10,
10,10,10,10,10,10,10,10,10,10,10,10,10,10,10,10,10,10,10,10,10,10,10,10,10,10,10,10,10,10,10,10,10,10,10,10,10,10,10,10
</data>
 </layer>
 <objectgroup id="2" name="collisions">
  <object id="2" x="96" y="416" width="16" height="88"/>
  <object id="8" x="112" y="576" width="128" height="8"/>
  <object id="17" x="0" y="0" width="640" height="16"/>
  <object id="20" x="0" y="16" width="16" height="624"/>
  <object id="21" x="16" y="624" width="624" height="16"/>
  <object id="22" x="624" y="16" width="16" height="608"/>
 </objectgroup>
</map>
